resources/svg/sort-up-o.svg

<svg xmlns="http://www.w3.org/2000/svg" viewBox="0 0 15 15" fill="none"><path d="M3.5 0.5L3.85355 0.146447C3.65829 -0.0488155 3.34171 -0.0488155 3.14645 0.146447L3.5 0.5ZM3.14645 0.146447L0.146447 3.14645L0.853553 3.85355L3.85355 0.853553L3.14645 0.146447ZM3.14645 0.853553L6.14645 3.85355L6.85355 3.14645L3.85355 0.146447L3.14645 0.853553ZM3 0.5V15H4V0.5H3ZM9 4H15V3H9V4ZM9 8H13V7H9V8ZM9 12H11V11H9V12Z" fill="black"/></svg>

<svg xmlns="http://www.w3.org/2000/svg" viewBox="0 0 15 15" fill="none"><path d="M3.5.5l.354-.354a.5.5 0 00-.708 0L3.5.5zM3.146.146l-3 3 .708.708 3-3-.708-.708zm0 .708l3 3 .708-.708-3-3-.708.708zM3 .5V15h1V.5H3zM9 4h6V3H9v1zm0 4h4V7H9v1zm0 4h2v-1H9v1z" fill="currentColor"/></svg>
